X: 26147
T: McInerney's
R: hornpipe
M: 4/4
K: Cmajor
|:(3EF^F|G>cB>d c>ge>c|G>EC>E G>cB>c|A>FA>c f>e (3d^c=c|B<gd>B (3GAG E>F|
G>c (3Bcd c>ge>c|G>EC>E G>cB>c|A>Ff>e d>cB>d|1 (3cdc B>d c>G:|2 (3cdc B>d (3cdc||
|:(3G^F=F|E2 e>c d>ce>c|(3EGE e>d c>GE>C|(3DED d>B c>A^F>A|(3GBd (3gdB G>^GA>B|
c>BA>G A<Ff>e|d>cB>A B>G (3g^f=f|e>c (3GFE F>fd>B|1 (3cdc B>d (3cdc:|2 (3cdc B>d c>G||

